/* XPM */
static char *_51d3fe02ea84a1eabde615c4b36e4a6EhkU2ZxTQwt5O1vD[] = {
/* columns rows colors chars-per-pixel */
"50 50 246 2 ",
"   c None",
".  c #020101",
"X  c #0C0202",
"o  c #0C090A",
"O  c #0A0708",
"+  c #120C0D",
"@  c #1D0D0D",
"#  c #14050A",
"$  c #1D0E12",
"%  c #180B14",
"&  c #141312",
"*  c #1C1214",
"=  c #1D171A",
"-  c #0A110A",
";  c #220E0D",
":  c #250900",
">  c #26110D",
",  c #351A06",
"<  c #240E12",
"1  c #2C0F11",
"2  c #241214",
"3  c #291314",
"4  c #23141B",
"5  c #251B1B",
"6  c #2A1C1C",
"7  c #2C1917",
"8  c #341C19",
"9  c #3F2507",
"0  c #39251C",
"q  c #2C211F",
"w  c #1F1D20",
"e  c #251C21",
"r  c #291E24",
"t  c #381F25",
"y  c #2F1E30",
"u  c #252124",
"i  c #2B2323",
"p  c #2B242A",
"a  c #2F292B",
"s  c #2F2820",
"d  c #322525",
"f  c #322826",
"g  c #34252B",
"h  c #352A2C",
"j  c #3A2D2D",
"k  c #3B2727",
"l  c #2F2532",
"z  c #342C33",
"x  c #372834",
"c  c #3D3333",
"v  c #3A3538",
"b  c #3A302F",
"n  c #441202",
"m  c #56190B",
"M  c #5C1C1E",
"N  c #551A18",
"B  c #4C1B14",
"V  c #751C00",
"C  c #681A00",
"Z  c #482717",
"A  c #562716",
"S  c #573519",
"D  c #6B2816",
"F  c #702914",
"G  c #5C1D24",
"H  c #591C26",
"J  c #631E27",
"K  c #631F34",
"L  c #452927",
"P  c #5D2325",
"I  c #5C232B",
"U  c #5A2928",
"Y  c #493129",
"T  c #573527",
"R  c #473A38",
"E  c #593933",
"W  c #4C2A33",
"Q  c #64242B",
"!  c #67292A",
"~  c #66382A",
"^  c #783925",
"/  c #6A2533",
"(  c #672834",
")  c #653935",
"_  c #743839",
"`  c #772D31",
"'  c #554536",
"]  c #694237",
"[  c #77433A",
"{  c #785337",
"}  c #704727",
"|  c #644818",
" . c #3F3D40",
".. c #423B41",
"X. c #7D3F42",
"o. c #494347",
"O. c #564948",
"+. c #5D5253",
"@. c #654846",
"#. c #784B47",
"$. c #63524F",
"%. c #655859",
"&. c #775956",
"*. c #7C6659",
"=. c #5A5C60",
"-. c #766A6A",
";. c #972A19",
":. c #883817",
">. c #933A13",
",. c #912911",
"<. c #A63A1A",
"1. c #A7360C",
"2. c #89342E",
"3. c #9E3D33",
"4. c #972B29",
"5. c #A93722",
"6. c #B5372C",
"7. c #C73932",
"8. c #B6521C",
"9. c #875634",
"0. c #99593A",
"q. c #8E4E2C",
"w. c #A94627",
"e. c #B64729",
"r. c #B75327",
"t. c #A8573B",
"y. c #B04D33",
"u. c #976638",
"i. c #A76835",
"p. c #B86838",
"a. c #B66C32",
"s. c #8D4014",
"d. c #C7432D",
"f. c #C84836",
"g. c #DA493A",
"h. c #C45733",
"j. c #D3583A",
"k. c #C15129",
"l. c #C9663D",
"z. c #C67C39",
"x. c #CF7433",
"c. c #844B4B",
"v. c #885848",
"b. c #98594A",
"n. c #845759",
"m. c #9A5955",
"M. c #8C4D4B",
"N. c #AB5745",
"B. c #B35743",
"V. c #A65C53",
"C. c #886547",
"Z. c #976547",
"A. c #8A6855",
"S. c #986857",
"D. c #9B7658",
"F. c #947347",
"G. c #A5654D",
"H. c #A66848",
"J. c #B57348",
"K. c #A76A56",
"L. c #B26E57",
"P. c #A77658",
"I. c #B67659",
"U. c #AD7448",
"Y. c #8B6862",
"T. c #996B67",
"R. c #9D7964",
"E. c #997567",
"W. c #95746E",
"Q. c #A67865",
"!. c #B57764",
"~. c #A77779",
"^. c #AB736B",
"/. c #D96644",
"(. c #C67746",
"). c #D77A46",
"_. c #C47A56",
"`. c #CC6C4F",
"'. c #D1803F",
"]. c #B5834C",
"[. c #A9835A",
"{. c #B68558",
"}. c #9C836C",
"|. c #AB846C",
" X c #A98665",
".X c #B68766",
"XX c #B9936D",
"oX c #A68474",
"OX c #B68675",
"+X c #BA9278",
"@X c #93814F",
"#X c #D68C46",
"$X c #C6855C",
"%X c #D58755",
"&X c #C59159",
"*X c #D8985B",
"=X c #D38F45",
"-X c #E8954E",
";X c #EEAA5C",
":X c #C6886A",
">X c #CC996B",
",X c #D79B65",
"<X c #C88872",
"1X c #C59475",
"2X c #D49579",
"3X c #D2896B",
"4X c #E79A68",
"5X c #E69B73",
"6X c #D8A268",
"7X c #D5AB79",
"8X c #E8A968",
"9X c #F7A866",
"0X c #F7B86B",
"qX c #E5A87B",
"wX c #EAB875",
"eX c #FAB979",
"rX c #EDAF6D",
"tX c #F6C67A",
"yX c #938887",
"uX c #B89084",
"iX c #BFA593",
"pX c #B0ABA9",
"aX c #C99887",
"sX c #DF9B83",
"dX c #DBA488",
"fX c #D9BB85",
"gX c #CFA88C",
"hX c #FDBD98",
"jX c #EFB186",
"kX c #DEBEA8",
"lX c #E2BDA3",
"zX c #E59B90",
"xX c #F9C688",
"cX c #FFD98B",
"vX c #FFC393",
"bX c #FDD596",
"nX c #E9CF90",
"mX c #FCE498",
"MX c #F8E28F",
"NX c #F9CEA6",
"BX c #FFDDA4",
"VX c #F6DDB6",
"CX c #F9E3AA",
"ZX c #FFF4B9",
"AX c #FEEBB3",
"SX c #FFD9C0",
/* pixels */
"                                                                                                    ",
"                                                                                                    ",
"                                                                                                    ",
"                                                                                                    ",
"                                E.Y.&.@.-.%.                                                        ",
"                          kX{ |.OXS.~ ) $.%.-.@.@.@.$.+.o.c = - o                                   ",
"                        |.P.dX2XH.^ ~ E j R Y L U ) #.&.&.%.=.=.. . o +.pXpX-.' a &                 ",
"                      C.P.1X$X0.:.q.~ E O.' ] #.S.S.S.&.@.E O.+.$.O.R +.yXyX%.%.-.o.& .             ",
"                     X.XH.J.q.:.q.q.{ C.C.C.q.I.G.K.v.E #.#.) #.Y.iX*.R R R h c l v +.& .           ",
"                    7XqX_.:.>.p.H.P.[.[.{.].J.(.$XH.S.v.c._ m.m.VXkXiX@.R W g l p z o.v &           ",
"                  nXxX4Xp.>.r.%X$X>XqX6X,Xz.x.).%XU.K.L.2.V.G..XXX[.R.E Y W x y l l p o.O           ",
"                @XbXxX'.8.h.).4XqXnXbXbX9Xx.-X9X8X,X_.y.B.N.I.{.P.XX{ Y 0 g y x x x g ... .         ",
"                fXwX0Xx.r.k.).9XnXMXmXcX=Xx.;XtX8XjXt.B.`.B.&Xu.F.C.S T L t 4 % r e ..R & O         ",
"                7XwX#X8.j.e.r.(.tXMXcX0X'.;XcXcXbX4Xw.`.t.hXxXbXNX{ S 0 7 2 4 = % + x h i .         ",
"                [.*Xr.1.f.d.5.r.8X0XxX*Xa.wXCXvXl.,./.`.qXAXnXCXgXA 9 0 7 * * % * * 5 6 c .         ",
"                F.i.w.<.5.e.<.(.-X#X9Xw.C :.i.s.1.j.j.`.BXCXZXVXC.E : 8 ; @ 4 * $ 6 # i R .         ",
"                v.0.F ;.w.:.:.p.z.#X%X>.,.5.e.e.h./.h.4XmXAXZXgX' 0 > > < ; < < 2 $ 4 r b .         ",
"                v.b.^ 2.D 3X$XJ.a.(.p.V ;.f.f.f.g.j.l.eXmXmXCX[.T 8 ; ; ; ; < < 4 # % 5 v o         ",
"              }.1XG.D D ^ VXAXBXjX,Xp.>.w.f.f.g.g.d./.eXcXcXxX9.Z > ; 2 < ; < 2 4 $ = p o.=         ",
"              oXP..X:X.XP. XXXfXCXBXCXvX).e.d.g.g.7.l.9X0XwX>X} , > 2 7 2 < < $ $ * u a ..O         ",
"              }.C.P.P.P.+X|. X| F.fXbXvX4Xl.6.7.7.d.l.).=X=Xu.A , ; ; 2 2 $ 4 4 e r z z v .         ",
"              E..XXXP.P.D. XXX, 9 XX,X*X8X(.,.6.6.e.p.a.a.i.^ Z 3 @ @ $ $ * r p z z z z  .o         ",
"                S.P..X1XOX X XS ,  X6X6X&Xq.V ;.4.3.t.0.i.u.T L 3 @ @ 2 5 r h h a p p u v .         ",
"                A.P.Q.K.|.D..XXXS [.&X&X].,X3XN.2.2.0.9.q.9.Y 8 2 @ 5 d f h j a p p z p z .         ",
"                A.v.A v.Q.R.Q.F.{  XP.].U.{.J.sXzX<X!.v.Z.} Y 2 2 i j j d i i a z u e u w .         ",
"                S.A.n A [ R.Q.{ ~  X.X[.u.I.H.I.L.!.dXdX1X{ Y k k h d h j j h p u & = p u .         ",
"                Y.Q.m n Z A.R.A.C. XD.D.H.2X:XL.G.G.I.I.{.P.' 8 j h d d h h i 5 * + = p u .         ",
"                E.Q.A N B ] v.Q.E.Q. X XS.!.<X2XsXL.N.H.H.} , 0 d h j h d 6 2 2 $ * r u = .         ",
"                OXP.m m N U ! #.E.A.E.oXT.K.L.!.I.2XzX:XH.} Z k d h j d 7 2 2 2 $ $ r h u .         ",
"              R.aX<X^ m N G N P U #.E.T._ ! [ b.^.K.G.:XdXD.Y q j d 6 2 2 2 2 2 2 # i o.R .         ",
"              D.1XqXG.m M H H I N H ( ( H H I U ~ S.!.P.K.A L x d 5 * @ 2 3 2 < 3 @ g o.v .         ",
"                P.1XZ.n M P Q Q / G P Q ( I I I U c.v.Z.Q.A L g 2 2 2 2 3 3 3 2 < 3 g h u .         ",
"                lXgXZ.m A M M / / J J / ( ( ( ( H c.M.b.v.E 8 d 2 2 2 < 2 > < < 3 7 j R p .         ",
"                oXA.v.~ m m ! J Q / / / ( ( K Q / m.m.b.v.T 8 k 2 2 2 2 3 3 2 > ; 6 c c e O         ",
"                  A.R.uX~.! M M G Q Q Q / / ` ` J M.b.m.S.) 0 i 2 2 2 2 2 2 2 2 2 d c s +           ",
"                    oXoXT.[ c._ Q Q J J Q / / Q ` V.G.K.S.) d g 2 2 2 2 ; 2 2 2 k j f * .           ",
"                      W.W.n.~.T.#.! G J Q Q Q Q m b.L.I.S.~ t j 2 2 2 < @ 2 6 f b i * X             ",
"                            ~.~.~.m._ Q H P P ! ^ H.J.J.K.] L k < 2 2 2 5 q f j 5 +                 ",
"                                ~.~.T.#.( I A m :XqX,X$XL.[ L L 6 2 2 5 i f i = O                   ",
"                                  @.W.T.n.c._ A b.qXvXhX<X} 8 k k 6 2 6 f s &                       ",
"                                      &.Y.~.zX!.I._._.qXNX{ L j j d d j i O                         ",
"                                        t n.aXK.L.3X5XJ..XS 0 h f c c 5 O                           ",
"                                            ~.OX!.2XhX{..XS 0 R j v z + .                           ",
"                                              Y.OXQ.!.9.P.S 0 s v i + X                             ",
"                                                &.A.Q.A.Q.T R f a o .                               ",
"                                                  L n.oXuXL k 6 o O                                 ",
"                                                  X 1 @.Y.Y 5 & .                                   ",
"                                                    X X 2 2 o .                                     ",
"                                                        . .                                         ",
"                                                                                                    "
};
