/* XPM */
static char *e539b41deb824518fcb0630549f80551D1JqCizrhlTkjKAS[] = {
/* columns rows colors chars-per-pixel */
"50 50 232 2 ",
"   c None",
".  c #0B0000",
"X  c #150001",
"o  c #1C0201",
"O  c #1E0B03",
"+  c #1C040B",
"@  c #180609",
"#  c #1E1005",
"$  c #1B0012",
"%  c #1C1012",
"&  c #230302",
"*  c #240A04",
"=  c #2D0801",
"-  c #23050A",
";  c #24090A",
":  c #2B0D0B",
">  c #2A0603",
",  c #310D0A",
"<  c #310A04",
"1  c #241205",
"2  c #2B130C",
"3  c #29170E",
"4  c #32140D",
"5  c #341A0C",
"6  c #391B0C",
"7  c #351806",
"8  c #270D12",
"9  c #2B0D13",
"0  c #24021E",
"q  c #29081C",
"w  c #330F11",
"e  c #261313",
"r  c #2B1313",
"t  c #2C1A14",
"y  c #27131C",
"u  c #2C151C",
"i  c #2D181F",
"p  c #321413",
"a  c #351A15",
"s  c #3B1C14",
"d  c #33141A",
"f  c #39131C",
"g  c #331A1C",
"h  c #3A1D1B",
"j  c #381515",
"k  c #2E201D",
"l  c #3D2212",
"z  c #3F2914",
"x  c #37241C",
"c  c #3C221C",
"v  c #3E2B1D",
"b  c #362217",
"n  c #2D0B2D",
"m  c #270628",
"M  c #2C1723",
"N  c #351E23",
"B  c #3A1D23",
"V  c #331C2D",
"C  c #3A1E2D",
"Z  c #321626",
"A  c #2E0E34",
"S  c #300C36",
"D  c #2F1D33",
"F  c #331E33",
"G  c #3C1530",
"H  c #320D26",
"J  c #342323",
"K  c #3C2323",
"L  c #3D242B",
"P  c #3C2929",
"I  c #392727",
"U  c #3A2435",
"Y  c #431D16",
"T  c #441D1B",
"R  c #491F1D",
"E  c #441A1B",
"W  c #441F05",
"Q  c #49270A",
"!  c #57300F",
"~  c #422315",
"^  c #4A2315",
"/  c #4D2A16",
"(  c #43231C",
")  c #4B241D",
"_  c #432A1C",
"`  c #4A2A1C",
"'  c #402B16",
"]  c #522C1E",
"[  c #542612",
"{  c #4A321C",
"}  c #53321E",
"|  c #57361D",
" . c #542605",
".. c #683C1C",
"X. c #421D22",
"o. c #411C2E",
"O. c #401C38",
"+. c #432423",
"@. c #4B2524",
"#. c #442B24",
"$. c #4B2B23",
"%. c #44252A",
"&. c #4C242C",
"*. c #452B2C",
"=. c #4B2B2B",
"-. c #522B24",
";. c #532B29",
":. c #512528",
">. c #4C3325",
",. c #46322E",
"<. c #4D332C",
"1. c #4D3B2D",
"2. c #483526",
"3. c #533224",
"4. c #5A3326",
"5. c #543925",
"6. c #5B3926",
"7. c #53332B",
"8. c #55392C",
"9. c #5A3B2C",
"0. c #5A342C",
"q. c #4C2C32",
"w. c #482936",
"e. c #512E33",
"r. c #522E3C",
"t. c #4B3432",
"y. c #4B3931",
"u. c #4D353C",
"i. c #533432",
"p. c #533B34",
"a. c #5B3B33",
"s. c #56373B",
"d. c #563B3A",
"f. c #5B3B39",
"g. c #593235",
"h. c #643C2C",
"j. c #673A26",
"k. c #633C3B",
"l. c #78461D",
"z. c #64431A",
"x. c #5E442D",
"c. c #5C4234",
"v. c #5F4339",
"b. c #574337",
"n. c #64452D",
"m. c #694428",
"M. c #634333",
"N. c #654A35",
"B. c #64443C",
"V. c #6B443C",
"C. c #624A3B",
"Z. c #6D4E3B",
"A. c #6D4231",
"S. c #734433",
"D. c #764D35",
"F. c #66513B",
"G. c #7C5D3C",
"H. c #73553B",
"J. c #7A5129",
"K. c #5D3D43",
"L. c #583745",
"P. c #4D2943",
"I. c #653E51",
"U. c #5C4442",
"Y. c #5E4A43",
"T. c #644642",
"R. c #624944",
"E. c #6D4B43",
"W. c #6A4D49",
"Q. c #694749",
"!. c #714C46",
"~. c #6E5549",
"^. c #7B5846",
"/. c #73554A",
"(. c #765646",
"). c #6C4C54",
"_. c #714D5B",
"`. c #765A51",
"'. c #775856",
"]. c #6F5A55",
"[. c #7D634A",
"{. c #796348",
"}. c #7E6056",
"|. c #7C5768",
" X c #835A39",
".X c #92663B",
"XX c #94703E",
"oX c #865C45",
"OX c #835E54",
"+X c #836549",
"@X c #946A48",
"#X c #9A7546",
"$X c #826354",
"%X c #84665A",
"&X c #966C57",
"*X c #957457",
"=X c #A3714C",
"-X c #AB7C5E",
";X c #8C6D66",
":X c #916F6C",
">X c #9A7363",
",X c #94746D",
"<X c #89756C",
"1X c #A57864",
"2X c #A98155",
"3X c #B48657",
"4X c #BF8E5D",
"5X c #B5894A",
"6X c #9C8075",
"7X c #AE8869",
"8X c #BC8B67",
"9X c #B78769",
"0X c #B9906D",
"qX c #AE8C71",
"wX c #B58A75",
"eX c #B6937C",
"rX c #C18C69",
"tX c #C29566",
"yX c #C18B76",
"uX c #C39674",
"iX c #D49D74",
"pX c #D8AB68",
"aX c #D7A878",
"sX c #E2B66F",
"dX c #E5B877",
"fX c #BA9384",
"gX c #BC9993",
"hX c #C29582",
"jX c #DEA981",
"kX c #E5B782",
"lX c #EEBFA1",
"zX c #F0C189",
/* pixels */
"                                                                                                    ",
"                                                                                                    ",
"                                                                                                    ",
"                                                                                                    ",
"                                        8X4XaXdXdXpXkXtX3XuXuX                                      ",
"                                  yXrX8X3XzXdXpXsXsXdX5XdXkXaX0XwX%X'.                              ",
"                              >XwXyXoXoX X-X#X#XXX.XXXJ.@X.X=XuXwX&X,X;X*.                          ",
"                          :XE.^.S.j.S.^.oX+X+X+X[.[.+X^.D.@XD.j.h.^.^.;X`.p.                        ",
"                        $XM.7.7.-.) ` 3.2 1 * # 1 O 1 v _ >.3.` 3.3.5.Z.(.`.R.                      ",
"                      !.5.s ) ( $.) c : X e I I J @ e t e 2 2 s a.a.$.{ H.[.`.K.                    ",
"                    $XN.n.N.v.: h h K h ; N P I P X N J J u + g 8 =.f.a.x.Z./.i.                    ",
"                    ` N.M.Z.o ; *.*.=.s.p i.%.=.*.- B B L L y L P r o 7.>.~ ` ~.w.                  ",
"                    $.M.N.5 r & h %.$.7., a.$.) -.Y +.+.h %.h *.N %.X r #.>._ W.u.                  ",
"                  :Xf.7.s p b & +.@.7.8.~ a.3.` ~ ` 3.7.+.$.c #.K <.; r #.2.>.W.u.                  ",
"                  i.=.T.p y.y.2 >.$.8.8.~ c.5.>.z ' >.>._ #.( >.{ _ 2 K K t.p.p.u.                  ",
"                  s.s.K.K *.Y.2 ( >.c.c._ `.v.1.1.#.1.<.p.<._ >.' >.2 P r p.p.b.u.F                 ",
"                  f.K.s.K K #.b 2 2 s s s s.U.,.,.t g 2 a 5 v v t x + ; : R.v.C.t.U                 ",
"                  +.+.p ; X o o * 2 ( @., & o o * o ; p c ( X o X O X o p * l 4 9 Z                 ",
"                  f.f.W.R.].R.U.d.a.0.h.A.j.6.M.c.7.f.f.g.7.a.8.8.7.%.p $.`.8.d.8 V                 ",
"                  !.B.$Xh t 2 c +.OX1X&X1X@X XoXOXOX) ;.@.R ) ` } 4.( > o 6XB.d.L F                 ",
"                  f.M.C.5 t t.=.) >XhX-X-X0X0X*X*X$XY ) R ) ) ] | fX) < > }.C.p.U F                 ",
"                  V.M.9.l #.B : ( ^ j.S.j.m.m.n.n.) -.:.E E ( 3.fX7X4.V.= /.v.,.V D                 ",
"                  8.3.n.l #.d q.#.7.V.< < & * * R.<.@.&.X.e.B Q.Z.eXE./.4 B.c.b.N U                 ",
"                  ;.6.} 6 >.B q.=.>.T.o ).B 8 u U.g %.=.X.%.L s./.9.a.'.6 B.a.#.N V                 ",
"                  @.~ 5.l ( %.X.( <.v.: Q.g e e J *.c $.+.#.*.e 2.<X& o o B.$._ B C                 ",
"                  @.` 6.7 ` @.&.$.>.C.: ].g t 3 y.<.) $.( +.P t . X X 8 o /.` >.K C                 ",
"                  e.7.9.6 ` @.@.) _ 7.}./.%X{.~.b._ s $.$.$.c t J % u y o B.` a.%.C                 ",
"                  q.i.a.6 ~ ] ^ s $.B.B.c.v.F.b.C._ Y ( @.$.c x k I u + * C.$.B.%.C                 ",
"                w.%.i.a.7 } [ [ Y & & & & o o o o o E &.&.=.K K P P *.9 & W.) 7.%.C                 ",
"                B *.*.7.` h. .lXwX) s j h r r e g d &.&.&.&.%.K #.+.%.9 o Q.( $.B C                 ",
"                N N =.i.~ oXl.tX7XG.Z.6 p K u M P B @.@.@.=.*.a ( -.+.w : T.( +.u V                 ",
"                I K K =.} m.l.4X2Xz.H.` p %.K u *.+.@.( ( +.#.b _ ` =.: > B.( h y V                 ",
"                N N p._ / ! jXiXaXJ.D.) X.=.=.s p.l ( h +.=.#.a ( $.h 9 * a.>.+.9 V                 ",
"                L t.1._ / Q rXrX.X..h.Y T @.$.( 5.>.( =.+.h p K 2.+.*.p X 7.a.i.r C                 ",
"                  t.<.{ 7 Q z.9X&XW 4.-.T ( $.( 9.( =.=.%.p f.<.j B w.d - f.<.#.r V                 ",
"                  K <.>.z | / @X>X^ 9.( ( $.$.( B.;.h &.q.p #.( +.j %.9 o p.b.x e V                 ",
"                  q.<.<.1 >.o gX,X( +.=.c ( $.( B.Q.g.&.&.&.=.* & gXX.d o d.#.K e V                 ",
"                  %.+.<.3 t.d X X +.h #.c ( ( $.B.R &.&.q.f =.$.eXfX> & o U.x I y                   ",
"                  &.@.7.o I L Z g K 2 K c $.` ( k.;.R @.=.%.h !.qXqX(.;X4 <.,.*.M                   ",
"                  :.) =.p + X + o X +.#.( $.) ) V.Y ) ) $.( a B.H.eXM./.a #.*.L                     ",
"                  -.) Y 4 #.%.q.%.<.=.$.T =.( -.h.^ / / ` 5 #.* N.%X& o * =.%.*.                    ",
"                  :.) ) ( <.%.%.K.f.i.e.X.e.@.Y E.] / ~ >.s ,.8 O #.- - - %.+.=.                    ",
"                    R E j s.).|._.w.r.L.o.I.I.f k.@.0.f.Q.B u.U             #.                      ",
"                              H G w.P.O.0 0 0 0 L.r.K.K.L.$                                         ",
"                                  S n n A A m S m n H q                                             ",
"                                                                                                    ",
"                                                                                                    ",
"                                                                                                    ",
"                                                                                                    ",
"                                                                                                    "
};
