/* XPM */
static char *_4c34d57f4ea4e5aa1069af2924f03b85LkA1Lkb1y3a5VY5[] = {
/* columns rows colors chars-per-pixel */
"50 50 174 2 ",
"   c #151A2E",
".  c #171C30",
"X  c #1A1F33",
"o  c #1C222E",
"O  c #1D2236",
"+  c #1E2338",
"@  c #212736",
"#  c #232937",
"$  c #21263A",
"%  c #252A3C",
"&  c #292F3E",
"*  c #2C323E",
"=  c #272C40",
"-  c #292E42",
";  c #2D3243",
":  c #313747",
">  c #343A46",
",  c #31364A",
"<  c #353A4D",
"1  c #393F4B",
"2  c #373C50",
"3  c #393E52",
"4  c #3B414D",
"5  c #3D4355",
"6  c #3F4458",
"7  c #414753",
"8  c #444A56",
"9  c #41465A",
"0  c #454A5C",
"q  c #494F5E",
"w  c #4B515E",
"e  c #474D60",
"r  c #4A4F62",
"t  c #4D5265",
"y  c #4E5369",
"u  c #515766",
"i  c #535966",
"p  c #51566B",
"a  c #555A6C",
"s  c #595F6C",
"d  c #535772",
"f  c #565B72",
"g  c #595E72",
"h  c #595D7A",
"j  c #5D636F",
"k  c #5D6274",
"l  c #5E637A",
"z  c #606675",
"x  c #636977",
"c  c #61667A",
"v  c #656A7D",
"b  c #696F7E",
"n  c #6B717E",
"m  c #5F6380",
"M  c #626681",
"N  c #676C81",
"B  c #696E82",
"V  c #6A6E8A",
"C  c #6D7284",
"Z  c #6F7489",
"A  c #717785",
"S  c #737986",
"D  c #71768A",
"F  c #757B8C",
"G  c #787E8C",
"H  c #727690",
"J  c #767B91",
"K  c #797E92",
"L  c #7A7E9B",
"P  c #7C828E",
"I  c #7D8295",
"U  c #7E8399",
"Y  c #808693",
"T  c #838996",
"R  c #81869A",
"E  c #858A9D",
"W  c #898F9B",
"Q  c #8B919E",
"!  c #8387A2",
"~  c #878BA2",
"^  c #898EA2",
"/  c #8B8FAA",
"(  c #8D92A5",
")  c #8F94A9",
"_  c #9096A6",
"`  c #9298A6",
"'  c #9196AB",
"]  c #9499AD",
"[  c #979CB1",
"{  c #999EB2",
"}  c #9A9EBA",
"|  c #9CA2AF",
" . c #9DA2B6",
".. c #9EA3BA",
"X. c #A1A7B5",
"o. c #A2A8B4",
"O. c #A1A6BA",
"+. c #A5AABD",
"@. c #A9AFBF",
"#. c #ACB2BE",
"$. c #A3A7C0",
"%. c #A6ABC2",
"&. c #A9AEC3",
"*. c #AAAECA",
"=. c #ADB2C5",
"-. c #AEB3CA",
";. c #B1B7C5",
":. c #B3B9C6",
">. c #B1B6CB",
",. c #B5BACD",
"<. c #B9BFCD",
"1. c #AFB3D0",
"2. c #B2B6D1",
"3. c #B6BAD3",
"4. c #B9BED3",
"5. c #B7BBD8",
"6. c #B9BDD9",
"7. c #BCC2CE",
"8. c #BCC2D5",
"9. c #BCC0DB",
"0. c #BEC3D9",
"q. c #BDC1DC",
"w. c #BEC2DD",
"e. c #BEC2DF",
"r. c #BEC2DA",
"t. c #C1C7D3",
"y. c #C1C7D5",
"u. c #C0C6D6",
"i. c #C1C7D7",
"p. c #C2C8D6",
"a. c #C3C9D7",
"s. c #C3C9D5",
"d. c #C3C9D5",
"f. c #C1C6DA",
"g. c #C1C6DB",
"h. c #C3C9D9",
"j. c #C2C8D8",
"k. c #C4CAD8",
"l. c #C5CBD9",
"z. c #C5CBDB",
"x. c #C6CCDA",
"c. c #C6CBDE",
"v. c #C7CDDD",
"b. c #C5CADD",
"n. c #C8CEDC",
"m. c #C9CFDD",
"M. c #C9CFDF",
"N. c #C9CFDD",
"B. c #CAD0DE",
"V. c #CBD1DE",
"C. c #C1C5E0",
"Z. c #C2C6E1",
"A. c #C2C6E1",
"S. c #C6CBE1",
"D. c #C4C8E5",
"F. c #C6CBE1",
"G. c #C8CDE2",
"H. c #C9CEE2",
"J. c #CBCFEA",
"K. c #CDD3E1",
"L. c #CCD2E2",
"P. c #CED4E2",
"I. c #CFD5E5",
"U. c #CDD2E4",
"Y. c #CFD4E8",
"T. c #CFD4E8",
"R. c #D1D7E6",
"E. c #D3D9E7",
"W. c #D1D6E9",
"Q. c #D5DAED",
"!. c #D7DCF0",
"~. c #D9DEF2",
"^. c #DAE0EE",
"/. c #DDE3F2",
/* pixels */
"+.P.n.y.B.x.K.a.B.x.<.C s a.y.B.a.n.B.a.z.a.P.<.w G z.x.z.B.z.a.t.a.n.n.| 8 ` K.z.n.v.j.n.n.z.j.z._ ",
"4.,.=.4.,.&.+.,.&.,.c.E F U.>.=.=.,.=.+.g.>.&.G.F { g.>.=.>.,.>.,.=.>.=.8.k 4.,.,.,.=.4.&.,.>.,.,.;.",
"3.3.w.-.3.5.9.-.5.-.5.U V w.*.w.5.-.3.9.*.w.2.w.d ) Z.3.2.2.5.3.>.5.*.Z.>.y -.3.2.-.5.5.3.1.5.5.>.@.",
"3.2.2.3.-.>.5.3.3.2.D.! J Z.-.3.*.3.3.3.2.3.1.Z.V ' w.>.3.5.2.2.-.5.3.3.3.d 2.2.5.5.3.1.5.5.2.*.8.=.",
" .>.%.T.-.,.%.4.>.,.>.k p =.-.=.S.>.%.=.G.+.8.-.y Z ,.>.3.4.%.=.8.8.,.,.' 0 / 8.O.g.>.=.%.9.3.8.>.E ",
"q a t a a q q Z s a k : & a u u a a q k k u b 0 @ ; a t a z i q q k w x 5 ; ; k q k c 0 p k c r v , ",
"<.+.<.:.<.x # z 8.=.:.:.:.:.=.:.:.;.5 & T :.=.=.y.<.:.=.<.:.( 4 > | 8.#.;.<.<.=.;.:.<.A : t O.<.-.&.",
"8.y.8.8.8.y.z <.8.8.8.8.8.8.j.,.8.z.O.b I.<.8.j.:.z.8.8.<.y.I.I ( B.:.7.7.z.>.j.y.8.,.K.k &.c.8.8.g.",
"3.-.2.2.2.-.d *.3.*.3.3.2.>.-.3.>.>.[ l 9.-.3.2.-.-.3.-.2.3.w.H R 3.3.>.>.-.2.3.2.-.2.3.M ..5.-.>.,.",
"-.2.w.-.3.2.h 3.w.-.2.2.2.2.3.5.3.5.} N 3.1.2.2.2.3.3.5.3.*.w.L J S...w.3.5.2.2.*.w.1.2.h ..3.5.3.=.",
"w.3.5.2.J.&.p *.9.5.g.3.9.9.w.-.9.5./ c 3.S.9.9.2.9.>.5.5.w.J.V F Q.9.-.3.9.g.5.5.5.g.w.l } D.2.5.8.",
"E U I K ^ a . t ' I ( ] { E R I U ( 9   D E D ( { { E I Z U I % ; C ( T { { ^ I I D ( B + 5 E R ) ' ",
"w C G S I A S S S C x * ; s A n F n G G S P P a # > z G A P I C S S S S 7 # 5 S A F S C I S F C c < ",
"<.E.P.K.n.x.^.B.B.^.B.n x x./.K.K.E.I.n.B.K.n.z.i G B.Q.P.E.K.E.P.V.B.E.X.t +.R.K.Q.K.R.K.I.n./.U.O.",
"3.3.=.,.,.>.>.>.-.=.8.( I g.&.,.>.>.-.-.3.3.4.8.Z [ G.=.=.>.-.-.>.=.>.>.9.g 3.-.,.=.-.9.&.2.-.&.,.=.",
"-.3.3.-.>.5.%.3.3.>.9.U N S.&.3.3.2.3.3.3.*.3.Z.l / 3.-.w.2.3.3.>.,.5.>.-.f ..9.2.3.3.2.3.3.3.3.4.O.",
"3.4.>.4.>.3.4.>.,.,.g.R J b.=.,.2.w.2.-.5.3.5.9.M } Z.-.5.3.5.3.>.,.,.4.3.p 5.,.,.5.,.8.-.4.>.3.4.&.",
"{ &. .4.%.+.+.8.=.,.&.p r +.+.+.>.O.=.&.5.+.,.+.0 c -.O.>.3. .O.>.,.&.4.E 2 I ,.O.,.&.O.=.,.=.=.,.J ",
"0 g g a k 9 5 g p a g < ; g y t k s 5 8 s j i 8 ; * k 8 u j w 8 t k t g 9 < 3 a r k k 0 5 a k a k 1 ",
"G.>.8.g.c.C ; N 0.4.8.c.c.0.4.g.a.:.w ; W a.7.k.x.a.7.<.n.7.o.4 5  .c.c.g.8.8.g.c.g.8.^ = g -.g.<.7.",
"4.4.,.,.>.g.v g.g.8.4.,.4.,.4.8.=.G.=.b I.4.4.,.>.c.4.4.,.=.E.I ( G.4.=.8.4.8.4.>.=.8.G.Z &.U.,.8.,.",
",.-.4.4.,.>.0 =.>.,.,.>.4.,.4.=.4.>.' g 5.-.9.3.3.-.-.>.3.-.g.F K b.&.,.,.>.>.-.4.4.=.,.g ] ,.,.9.-.",
"&.,.g.+.4.-.c >.,.-.>.-.4.>.,.3.2.5.[ H 5.2.-.*.3.-.5.3.3.3.5.K F G.>.,.=.4.,.>.-.>.-.8.c O.4.=.*.2.",
"0.8.>.0.b.+.y +.g.8.g.,.8.4.8.,.5.S.' y g.9.9.w.5.9.w.3.5.9.g.C J 8.8.8.8.8.4.4.8.>.b.0.t ) U.5.9.w.",
"J I v D R 0 + 5 E C D ( ' Z J v A Q # @ x T b Y ( E C A v Y C # % N I D I ] I C D N I k   < K F K E ",
"t U E I ^ R U ) R I I - $ D ^ U W G T ( G P Q k o > Y W P P T Q ^ ) I E t O 5 ^ R I U E ( ^ E R I > ",
"8.W.U.G.U.W.W.G.U.c.W.K N c.G.W.G.K.R.K.R.L.K.L.z T I.K.K.I.n.L.c.G.Q.b.>.t +.Q.c.~.W.c.W.G.g.W.n.X.",
",.-.=.,.=.%.>.=.>.>.g.^ K c.>.=.>.,.%.=.=.4.&.8.B { >.>.=.,.4.>.>.,.=.4.4.l >.>.=.=.-.=.&.>.,.>.8.>.",
",.,.>.,.>.,.8.>.4.-.,.F Z 0.>.4.3.>.3.w.*.>.2.w.m ' 5.w.5.2.*.-.&.,.>.4.&.y =.>.8.+.=.0.4.,.4.>.=.$.",
",.4.,.4.4.,.4.>.>.>.W.R K G.&.,.3.3.5.-.Z.-.3.Z.Z ~ J.%.3.w.3.w.g.,.>.,.4.g =.,.>.8.8.,.>.=.>.,.S.&.",
"^ { O.=.&.] ..8.+.&.&.5 5 {  ...>. . .O.,.O.=.' , a >.] +.=.{ ) +.&.{ 8.F , N ,.' =.&.[ O.,.=.O.=.k ",
"t g p a g 9 3 r k a a 6 r t a g k a > 5 i i k u 9 5 i i k k t 5 5 g a k r 9 p t a g a 9 2 e g a a q ",
"G.c.U.b.G.R ; I U.G.G.c.W.b.G.G.c.g.c <  .G.g.c.G.W.g.c.c.I.>.5 t -.U.8.Q.G.b.U.U.0.U.] < c c.G.n.L.",
">.4.-.,.4.c.c g.,.4.4.>.>.4.,.4.,.0.+.N G.,.8.,.>.,.,.4.>.>.U.( ~ U.,.>.>.>.>.,.>.,.,.G.N =.0.>.4.3.",
"8.-.4.&.,.=.t ,.,.=.>.4.>.4.&.8.>.0.^ l 8.,.&.4.,.=.>.8.4.+.8.C C g.=.4.>.8.g.=.,.,.>.,.k ] 4.,.%.w.",
"&.4.,.4.>.,.y =.>.4.,.,.=.4.,.=.4.>.{ C 8.=.4.=.4.,.,.,.-.=.G.D E g.>.>.4.%.,.>.>.>.-.8.g  .4.>.g.2.",
"g.8.&.8.b.O.a  .c.4.,.b.c.-.4.,.4.c.E a 4.0.4.c.4.4.,.8.,.g.0.v v 8.G.,.b.g.8.8.4.-.g.=.g ^ c.,.>.5.",
"v N c k F < X 5 D v Z K I v C k c I $   a K a D R F C N k N k $ ; N N v K E C c C g I 0 $ % F v F G ",
"g  .] ' ' +.] ] ] ] R - + F  .^ ) ( O.O.] ( { D X 5 R ) ( [  .[ { ] ( ( g   r [ ^ ( ]  .] ..{ ( W 4 ",
"8.U.b.c.T.b.g.U.c.c.W.E C L.U.G.G.U.8.G.g.G.G.G.v ^ Q.G.G.G.c.c.G.8.U.Q.-.k =.U.G.W.c.g.W.c.8.W.K.+.",
">.g.O.4.-.=.>.=.=.,.4.~ I 8.>.=.>.&.,.=.4.&.>.8.N ) 4.=.,.,.=.=.>.=.=.>.4.a >.>.,.,.&.,.=.,.&.>.,.-.",
">.-.4.=.8.,.4.8.,.,.8.J N 8.,.4.,.0.-.,.>.4.=.g.v ' g.>.>.,.>.4.,.,.,.,.-.t =.8.,.=.8.>.,.=.8.3.>.&.",
",.8.g.8.4.,.=.>.,.,.G.E K c.,.4.,.,.,.,.4.,.4.0.v ^ 8.,.,.8.,.,.,.4.8.=.4.g -.,.,.8.4.,.,.8.4.>.g.+.",
"R ] E  .{ ' O.,.]  .[ 3 , ( { ( &.( ' { %.[  .E ; p ] ' ] O.{ )  .&.^ =.D , k O.E +.[ ' ' %.{ .. .b ",
"a g k c C , - 0 N a g a a a a k k g , < a v k g p t k a g N a - < k g k l 5 a k k c c 9 , 0 l a s 8 ",
"U.b.Q.U.c.] 9 R U.W.W.U.W.T.!.c.W.U.N < &.U.U.U.Q.L.U.W.!.W.=.a g 0.U.G.c.Q.~.G.W.G.U.&.3 C c.Q.E.B.",
",.>.>.4.,.8.g c.,.=.>.=.>.=.,.>. .G.=.N W.=.>.>.&.>.>.>.&.-.G.^ ) 4.,.&.g.&.=.>.=.=.>.W.N >.g.+.>.-.",
">.,.>.=.8.&.p =.4.=.8.>.3.,.3.3.8.,.E v 4.&.8.,.>.4.-.4.3.>.g.C F 8.>.>.>.9.>.3.-.8.>.=.k ] >.9.3.2.",
"3.4.,.>.g.%.g >.5.-.>.>.4.>.3.>.-.j.) v 5.5.>.3.3.3.3.3.>.5.g.D F g.4.>.3.3.3.2.3.3.3.8.f  .0.>.-.2.",
"-.-.-.&.4.{ e  .5.-.>.>.3.-.2.-.-.8.R p -.,.-.3.2.2.>.-.&.>.3.v N 4.>.=.2.2.2.-.-.-.>.-.t ( 4.=.-.2."
};
