/* XPM */
static char *_ec0f86516714ac6980c97f01249acfdkcH0xCds3Fr33sky[] = {
/* columns rows colors chars-per-pixel */
"50 50 228 2 ",
"   c None",
".  c #050C0C",
"X  c #190A09",
"o  c #030D12",
"O  c #0A0C13",
"+  c #07161A",
"@  c #1B1718",
"#  c #270B05",
"$  c #350C00",
"%  c #320903",
"&  c #291308",
"*  c #321A0C",
"=  c #371508",
"-  c #2D1613",
";  c #281A16",
":  c #3C1E1B",
">  c #381A14",
",  c #2B2419",
"<  c #22211F",
"1  c #392215",
"2  c #32221D",
"3  c #3B241B",
"4  c #342415",
"5  c #3D371C",
"6  c #3D200E",
"7  c #041426",
"8  c #151B25",
"9  c #271F23",
"0  c #341E20",
"q  c #132D2B",
"w  c #172626",
"e  c #0C2337",
"r  c #172935",
"t  c #1E3233",
"y  c #22262A",
"u  c #2B2E2B",
"i  c #252825",
"p  c #342424",
"a  c #342B2B",
"s  c #3B2A2B",
"d  c #392A23",
"f  c #2B322B",
"g  c #39342D",
"h  c #292F35",
"j  c #293837",
"k  c #3E3331",
"l  c #37383A",
"z  c #460A02",
"x  c #481707",
"c  c #471A17",
"v  c #581817",
"b  c #581004",
"n  c #670806",
"m  c #641C16",
"M  c #71140E",
"N  c #4A241D",
"B  c #462519",
"V  c #5B2315",
"C  c #572919",
"Z  c #57321E",
"A  c #4E2913",
"S  c #69281A",
"D  c #683117",
"F  c #7B391D",
"G  c #6E310F",
"H  c #621D20",
"J  c #442B23",
"K  c #4C2A24",
"L  c #442C2A",
"P  c #462727",
"I  c #582C26",
"U  c #45322C",
"Y  c #4C352B",
"T  c #52332B",
"R  c #5B3428",
"E  c #433234",
"W  c #4A3333",
"Q  c #4C3A32",
"!  c #47383E",
"~  c #5B3D36",
"^  c #573833",
"/  c #672C24",
"(  c #772422",
")  c #653424",
"_  c #64342C",
"`  c #683B27",
"'  c #773927",
"]  c #643C34",
"[  c #6B3A34",
"{  c #7F393B",
"}  c #2A453C",
"|  c #494239",
" . c #5E413C",
".. c #594838",
"X. c #6D432C",
"o. c #65402E",
"O. c #75442B",
"+. c #6B4534",
"@. c #63443B",
"#. c #6B493C",
"$. c #6F4538",
"%. c #7B4A34",
"&. c #7B4439",
"*. c #734737",
"=. c #7D5339",
"-. c #745138",
";. c #68523B",
":. c #1C2C47",
">. c #112C47",
",. c #2D3542",
"<. c #623F45",
"1. c #3A4A4D",
"2. c #344647",
"3. c #3C4B57",
"4. c #3B5049",
"5. c #384A64",
"6. c #3F5876",
"7. c #434748",
"8. c #5B4947",
"9. c #495659",
"0. c #535B5D",
"q. c #555050",
"w. c #644642",
"e. c #654C44",
"r. c #6B4943",
"t. c #734D44",
"y. c #7A4B48",
"u. c #795A46",
"i. c #795347",
"p. c #685855",
"a. c #755852",
"s. c #5F665D",
"d. c #796855",
"f. c #72634E",
"g. c #475978",
"h. c #525963",
"j. c #5B6967",
"k. c #5D7775",
"l. c #4F6467",
"z. c #7D6667",
"x. c #6B7169",
"c. c #6E6974",
"v. c #6F7273",
"b. c #861707",
"n. c #8A1B15",
"m. c #981608",
"M. c #A51D0C",
"N. c #97251A",
"B. c #962210",
"V. c #A52617",
"C. c #863628",
"Z. c #92312C",
"A. c #B63522",
"S. c #86462D",
"D. c #834634",
"F. c #884A37",
"G. c #934D3B",
"H. c #81543D",
"J. c #8D5639",
"K. c #93573D",
"L. c #A1402D",
"P. c #A0613E",
"I. c #8A4E45",
"U. c #8C5B4B",
"Y. c #865945",
"T. c #945946",
"R. c #845955",
"E. c #A75453",
"W. c #876349",
"Q. c #896E5B",
"!. c #886954",
"~. c #9A6B57",
"^. c #946343",
"/. c #A86644",
"(. c #A3715A",
"). c #B76B4F",
"_. c #826B61",
"`. c #977B65",
"'. c #947F75",
"]. c #8C7062",
"[. c #A77868",
"{. c #B97667",
"}. c #C35F45",
"|. c #C97256",
" X c #D06656",
".X c #60837C",
"XX c #B2805D",
"oX c #91806E",
"OX c #998178",
"+X c #8F8970",
"@X c #A6816B",
"#X c #B98669",
"$X c #A7877A",
"%X c #B58E76",
"&X c #B88E77",
"*X c #BA937B",
"=X c #B4916C",
"-X c #CB8364",
";X c #C39678",
":X c #DB9B7A",
">X c #C1A676",
",X c #E0A47F",
"<X c #576A8B",
"1X c #72758C",
"2X c #707C97",
"3X c #6C8883",
"4X c #7D8686",
"5X c #999990",
"6X c #9A8584",
"7X c #BA9B85",
"8X c #B39791",
"9X c #B8A492",
"0X c #92A9A8",
"qX c #A3ADAE",
"wX c #C89886",
"eX c #C09C90",
"rX c #CEA588",
"tX c #D6A883",
"yX c #C8A594",
"uX c #D9B397",
"iX c #EEB995",
"pX c #ECB48B",
"aX c #DBBAA7",
"sX c #A2C1BC",
"dX c #F6C4A4",
"fX c #AAC9C3",
"gX c #C7DDDA",
"hX c #D6F3EE",
/* pixels */
"                                                                                                    ",
"                                                                                                    ",
"                                                                                                    ",
"                                                                                                    ",
"                                                                                                    ",
"                                                                                                    ",
"                                                                                                    ",
"                            = / / { H     I.m m E.                                                  ",
"                              x ( E.Z.n n n.B.N.n.M                                                 ",
"                              C m n n M b.V.A.V.V.N.S                                               ",
"            >X              4 6 C z C.Z.b.V.M.M.M.n.n                                               ",
"          `.=X                9X`.U.m b L.b.B.A.m.n.(                                               ",
"          Q.                      ;.U.S S.|.|.}. XM v                                               ",
"        ..                        u.[.S S.-X).-X).{.wXc                                             ",
"        ..                  7X] $ x G.' F.P.pX#XK.#X$ B                     @XW.%XrXuX              ",
"      +X5                 ` %.U.H.x S S.F /.G tX#X;XZ d.    Z A ` R o.+.-.W.=.@XdX*XH.-.            ",
"      ..d.            X.' G.D.J.H.C D.K.F :X/.iXO.rX= & 1 B C ) D.D.=.X.A   9X`.*X*XwX7X            ",
"      5           R U.K.T.D.D O.Z ) X.%.D :XdX,XiXuX!.# & = Z D ' D A                               ",
"      ..      _ D.G.T.D.&.[ C B * J @.$.A (.iXJ.XX;Xu.* * Y : B c                                   ",
"       .'.  ) T.C.G.' C     : : & Q U > $ ` ^.;XtX-.Q.                                              ",
"        d   X.T./.G       v.2 & - - L J * # *.=.Y.-.                                                ",
"        |     S./.S.      O X # # - J Q * #     @X                                                  ",
"        ; '.  V S.T.!.    @ # % $ I N 1 OXQ                                                         ",
"          W     ' T.R       y.z z % T                                                               ",
"          W ^   &.U.t.      v v c > #                                                               ",
"            P >   ) i.      I R.<.! v.7.    y l                                                     ",
"              w.A ~.*.u.    3 ! c.1X2X2X:.r r w x.        4X                                        ",
"                  C =.+.4 d a v.1Xg.<Xg.:.e + 8 qX      l 1.h                                       ",
"                &X  ~.W.    u h.3.:.5.6.>.7 r + w + + j 9.1.2.y                                     ",
"                %XU.  Y.a.  7.8 8 8 5.5.e e r t q 2.q 3X1.h + h                                     ",
"              ].W.%.  $.9X8X! l 9 9 l ,.7 3.l.k.k.3Xq 0X2.+ O O v.                                  ",
"              ].Y.wX7XQ.  p.q.8.6Xd p a 0.0XgXhXfXsXj k.1.o o @ u                                   ",
"                yX$XoX  5X5XE z.L @.* 3 , s.3X.Xk.3Xq k.2.o + 8 <                                   ",
"                        7.q.E L w.* eXaXf.g 4.} 1.1.h 0.1.. o 9.i                                   ",
"                        x.i k E U 9X$XaX7X& , f y h y u j w j j.l                                   ",
"                          | a s ..d.#.yX%Xu.e.W E X @ < i j j.j                                     ",
"                            X 8.| 4 o.@X(.[.$.i.a.: d X u f i i                                     ",
"                              U Q B @XwX{.z &.y.y.K X p k g u s.                                    ",
"                          J e.e.^ K C V b ' &.I.i.P - ; ; ; X                                       ",
"                      e.w.$XOX   .@._ / / ' / ) #.3 & 2 p ; p p                                     ",
"                    ^ r.R.$.r.R.B K ] _ V T.I.~.R _.- p p ; 0 s a                                   ",
"                     .R R._ t.K : T ~ R _ &.I.i.#._.; k s s p s k                                   ",
"                    J K [ R ] & L   z.w.] $.*.$.i.> E   ! a k g                                     ",
"                      K N ^ t.Y         @.N i.I e.- p                                               ",
"                      J ^  .-           p.~ N #.8.U                                                 ",
"                                            ~  .3                                                   ",
"                                                                                                    ",
"                                                                                                    ",
"                                                                                                    ",
"                                                                                                    "
};
