/* XPM */
static char *_6aa21f0aa754b77eb807854ff325dedZkWhAZ1VFgKIxxIB[] = {
/* columns rows colors chars-per-pixel */
"50 50 256 2 ",
"   c #A0A0A0",
".  c #A0A0A0",
"X  c #9D9D9E",
"o  c #374934",
"O  c #A1A1A2",
"+  c gray62",
"@  c gray64",
"#  c gray62",
"$  c #9C9B9C",
"%  c #9F9F9F",
"&  c #455E3F",
"*  c #3A4738",
"=  c #404E3D",
"-  c #465A3F",
";  c gray63",
":  c #324531",
">  c #3C4E39",
",  c #3A4C37",
"<  c #465641",
"1  c #3D5539",
"2  c #466041",
"3  c #394834",
"4  c #394B34",
"5  c #A5A5A5",
"6  c #394535",
"7  c #40523C",
"8  c #374233",
"9  c #9F9F9E",
"0  c #435542",
"q  c #3B3931",
"w  c #41593B",
"e  c #2D3628",
"r  c #435C3D",
"t  c #2C3A29",
"y  c #34482F",
"u  c #41503D",
"i  c #435140",
"p  c #3F5739",
"a  c #4A6444",
"s  c #31402F",
"d  c #9E9C9D",
"f  c #344B31",
"g  c #31382D",
"h  c #485A44",
"j  c #3B453A",
"k  c #455340",
"l  c #354030",
"z  c #423F37",
"x  c #A0A0A0",
"c  c #31452D",
"v  c #41553C",
"b  c #364632",
"n  c #435B3D",
"m  c #374D34",
"M  c #2F3D2B",
"N  c #A2A19F",
"B  c #384A36",
"V  c #9F9F9E",
"C  c #A7A7A7",
"Z  c #353D33",
"A  c #403C34",
"S  c #8B8C86",
"D  c #3B4F37",
"F  c #2A3D27",
"G  c #48623F",
"H  c #283124",
"J  c #496143",
"K  c #9D9D9D",
"L  c #2D3327",
"P  c #364033",
"I  c None",
"U  c #2A2923",
"Y  c #394F34",
"T  c #3C5139",
"R  c #A4A4A4",
"E  c #262D22",
"W  c #3E4C3A",
"Q  c #354332",
"!  c #303A2D",
"~  c #43583E",
"^  c #3B4A38",
"/  c #9D9D9D",
"(  c #9B9A9C",
")  c #2F2D28",
"_  c #9E9D9C",
"`  c #506B49",
"'  c #9C9C9D",
"]  c #2B2D24",
"[  c #36352F",
"{  c gray63",
"}  c #3A5236",
"|  c #485843",
" . c #354735",
".. c #323D30",
"X. c #9F9F9E",
"o. c #9D9D9D",
"O. c #26251F",
"+. c #32302A",
"@. c #4E4B43",
"#. c #A2A2A2",
"$. c #32422E",
"%. c #536F4C",
"&. c #4F634B",
"*. c #2C402B",
"=. c #485D43",
"-. c #4B6248",
";. c #465C42",
":. c #2E2F26",
">. c #4A5E47",
",. c #9B9B9A",
"<. c #4F5F47",
"1. c #9F9F9F",
"2. c #A2A19F",
"3. c #47443B",
"4. c #35332B",
"5. c #999A9A",
"6. c #9C9C9B",
"7. c #5D7A54",
"8. c #A4A4A4",
"9. c #3C4839",
"0. c #4B5B46",
"q. c #353F31",
"w. c #9A999A",
"e. c #4B473E",
"r. c #333C30",
"t. c #58754F",
"y. c #496640",
"u. c gray65",
"i. c #9D9C9F",
"p. c #4E5E4B",
"a. c #9DA39E",
"s. c gray56",
"d. c #8F8E8C",
"f. c #A8A8AA",
"g. c #394137",
"h. c #333A33",
"j. c #363E34",
"k. c #7A7B77",
"l. c #9A9B9A",
"z. c #A3A3A4",
"x. c #4D6745",
"c. c #8E8E8E",
"v. c #A7A7A5",
"b. c #4E6943",
"n. c #767874",
"m. c #979797",
"M. c #2C372B",
"N. c #232920",
"B. c #444B42",
"V. c #40473F",
"C. c #404B3D",
"Z. c #2E392B",
"A. c #A8A8A7",
"S. c #303C2E",
"D. c #565651",
"F. c #353F33",
"G. c #959595",
"H. c #343E33",
"J. c #444F42",
"K. c #514F4A",
"L. c #2E392C",
"P. c #485545",
"I. c #929292",
"U. c #AFAFAF",
"Y. c #B2B2B1",
"T. c #AFAFAE",
"R. c #5F675F",
"E. c gray58",
"W. c #454E43",
"Q. c #283424",
"!. c #979797",
"~. c #8E8E8E",
"^. c #636461",
"/. c #424A40",
"(. c #9FA29E",
"). c #2D372A",
"_. c #595855",
"`. c #353D33",
"'. c #4A4B47",
"]. c #40473E",
"[. c #A5A5A5",
"{. c #979797",
"}. c #A7A7A7",
"|. c #333C31",
" X c #3D473E",
".X c #3C453B",
"XX c #2F3B2D",
"oX c #3D453B",
"OX c #323D2F",
"+X c #3E443E",
"@X c #394336",
"#X c #9A9998",
"$X c gray62",
"%X c #989793",
"&X c #898989",
"*X c gray66",
"=X c #A9A9A8",
"-X c #A4A5A4",
";X c #485144",
":X c #55734C",
">X c #979797",
",X c #40493B",
"<X c #6F6E6C",
"1X c #9FA5A0",
"2X c #30372F",
"3X c #2D392B",
"4X c #8F918C",
"5X c #9D9D9D",
"6X c #74746F",
"7X c #979696",
"8X c gray64",
"9X c #7E7E79",
"0X c #83837F",
"qX c #9B9B97",
"wX c #939393",
"eX c #62635D",
"rX c gray63",
"tX c gray58",
"yX c #253023",
"uX c #A0A0A0",
"iX c #A5A5A5",
"pX c gray61",
"aX c #586156",
"sX c #A5A5A6",
"dX c #3F463D",
"fX c #90908F",
"gX c #3F453D",
"hX c #4F574E",
"jX c #5D645C",
"kX c #2E3A2E",
"lX c #4D544C",
"zX c #3F463F",
"xX c #9D9B99",
"cX c #898885",
"vX c #868480",
"bX c #363D34",
"nX c #343C32",
"mX c #858783",
"MX c #2B352A",
"NX c gray67",
"BX c #30392E",
"VX c #989898",
"CX c #B1B1B1",
"ZX c #ABABAA",
"AX c #465145",
"SX c #656763",
"DX c gray63",
"FX c gray68",
"GX c #969495",
"HX c #7C7E7A",
"JX c #5D6159",
"KX c #3C433B",
"LX c #6F736E",
"PX c #7E7C79",
"IX c #4B514A",
"UX c #47704C",
/* pixels */
"UXUXUXUXUXUXUXUXUXUXUXUXUXUXUXUXUXUXl Z.yXXXS.S.OXXX3Xq.j.BXyXMXF.r.r.l UXUXUXUXUXUXUXUXUXUXUXUXUXUX",
"UXUXUXUXUXUXUXUXUXUXUXUXUXUXUXUX XyXnXq.I P.h 0.| ^ u k P.J.I H.OXL.L.oX.XUXUXUXUXUXUXUXUXUXUXUXUXUX",
"UXUXUXUXUXUXUXUXUXUXUXUXUXUXUXl ).@Xi 0.h ;.-.=.- - - - <.0.< | | k = @XB.l UXUXUXUXUXUXUXUXUXUXUXUX",
"UXUXUXUXUXUXUXUXUXUXUXUXUXUXl |.q.i >.- r & p G b.` ` G - J ~ 7 - <.k W ,X;Xl UXUXUXUXUXUXUXUXUXUXUX",
"UXUXUXUXUXUXUXUXUXUXUXUXUXn.Z.j.= h >.n 2 a ` %.t.7.7.:Xx.J & - - - < < 9.,X;XUXUXUXUXUXUXUXUXUXUXUX",
"UXUXUXUXUXUXUXUXUXUXUXUXUX XL.* 0 0 - 2 J G x.%.t.7.:Xb.b.a G n ~ ~ h k ^ 6 dXF.UXUXUXUXUXUXUXUXUXUX",
"UXUXUXUXUXUXUXUXUXUXUXUXUXF.H.= 0 h -.&.& w & a y.y.y.G a r p p ~ ;.h W * j @X;XUXUXUXUXUXUXUXUXUXUX",
"UXUXUXUXUXUXUXUXUXUXUXUXM.3XkX .B 0 >.-.;.p p n r w r a a w 1 ~ =.&.| Q Q j +XB. XUXUXUXUXUXUXUXUXUX",
"UXUXUXUXUXUXUXUXl M.F.).L.2XM  .: B D v v T m Y 1 } Y T 1 f Y T T 0 o s 9.9.h.zXR.UXUXUXUXUXUXUXUXUX",
"UXUXUXUXUXUXUXM.XXS.q.W.* t *.B , , o o o y c y 4 4 y c : $.o o :  .: B i C...+XB.MX]. Xl UXUXUXUXUX",
"UXUXUXUXUXUXl ).@XP.p.p.W M M y 4 7 7 > 4 y 3 3 3 ^ W u = B , B : : W u = 9...g kXbXq.nXXX/.l UXUXUX",
"UXUXUXUXUXr.|.q.= p.p.| 7 b F *.c , 7 u W 8 8 8 6 W k k i ^ * * s M Q 6 Q M t s W 0 k I j V./.UXUXUX",
"UXUXUXUXl ).j.P.< | < > y : *.F F t t P Z g L e ! P 9.= 9.* P t t M t t t F *.o 1 ;.>.p.= * gX.XUXUX",
"UXUXUXS Z.q.C.p.7 > D y c m f y : s M e E ] E E H H e ! M t e t Q 6 6 b b 4 T v ~ =.p.p.P.= `.3X XUX",
"UXUXUXM.L.! 6 b y D w w w & =.>.7 ^ 6 Q.E L g :.E H H E H Q.s 3 3 3 = < | < ~ - ;.;.< < i 9.P H.KXl ",
"UXUXUXZ.S.6 u 7 v w r J J & & -.0.7 b e H g g.g H L E N.H M b $.$.o T T v h &.&.-.- | 0 W 8 j Z V.F.",
"n..X|.OXI | 0.>.& & a %.` 2 & n =.< 4 3 M g ..L H e e M b B 4 m D D Y f y m - <.=.~ 7 u * g.j h.2XgX",
"].OX`.* i p.&.-.& a ` :X7.%.x.2 n v 7 < < 6 e Q.! 6 i 0.h v 1 w n - & n } f y Y D , 3 b 6 g.Z [ j.|.",
"BXg.j Q ^ h -.J r r & a %.` a x.J ~ - 0.| k b M 3 | <.<.- n w w r & 2 2 & 1 f c c :  .9.9.P g L V..X",
"`.9.9.b o D 1 w 1 p w 2 a 2 & J & =.&.=.v k o F $.7 0.- w 2 a a x.x.G r w 1 } D o $.Q Q ..! g j.B. X",
"P P.u , b c Y 1 } } 1 n w } 1 ~ ~ ;.h 7 > > B $.F y v ;.2 x.%.t.7.t.b.G 2 w p ~ v B t t Q.H.B./.r.UX",
"M = i o 4 f y Y D m f m f f f o T T B  .: : B  .*.*.T -.` %.t.7.7.t.` y.G r n J >.7 Q M ! AXjXUXUXUX",
"! Q * ^ , T 7 , , B , B , 3 B B : : :  .: > 7 > s *.4 - J a ` %.` x.G & n p ~ &.&.0 B Q 8 C.hXn.UXUX",
"j.! P C.P.P.k 0 ^ ^ u k P.i ^ = ^ W = , ^  .>  .F $.u < v p r 2 2 r r & - v v =.h = o B 9.P V.aXUXUX",
"Z.S.! C.= i i = Q 8 6 C.C.I 6 6 = i = ^  .s : s M 4 | | v 1 1 w r 2 J a n T D > , B > u W ..W.R.UXUX",
"l oX`.Z g.g.8 g.Z g H L g P ! g 6 8 6 * Q t M M b 7 <.&.=.w 1 p r 2 a J 1 m Y B y 4 u < W ..W.R.UXUX",
"UXM.oXH.Z zXV.bXJ.eXD.h.U :.:.] L E H ! t e s Q > > < h T Y m Y } 1 p Y f f Y , B 4 W B * 8 W.R.UXUX",
"UXUXr./.hXIX].JX0XC 2.6Xe.[ ) ] :.:.] L H ! 3 ^ u , , : : o m m f y f c y B  .o , W k I 6 Z ,XaXUXUX",
"UXUXUXUXUXUX5.mX#X5 5 2.%XPXD.K.A U :.:.L e 8 C.u = W Q o o 0 0 > 4 4 T > > ^ W P.i J.9.g 2XoXl UXUX",
"UXUXUXUXS &XmX7X2.5 N X.v.N N N 9Xq O.:.:.:.g P 6 9.9.$.Q C.= i B s W i i 9.* J.J.j P Z h.dX].UXUXUX",
"UXUXUXUX5.c.#X5 C C R X.(.(.@ N vX3.U q [ ] :.L L e e H L P j P ..! P j j Z h.Z h.g.'.'.SXHXLXjXS UX",
"UXUXUXl.E./ C f.f.5 R 1Xa.a.N qXD.O.+.z z :.:.:.] :.:.] E E g j lXj h.g.g.lX^.^.^.<Xd.fXGXw.fXc.&XUX",
"UXUXUX5X[.5 5 5 f.5 a.a.a.1X8.6X[ U +.q z q q [ 4.:.] U N.U K.9X4X0Xk.k.k.d.# $ 7X( ( / ( ( ( m.~.s.",
"UXS 5.}.sX8.f.5 5 @ (.(.1Xa.4X@.O.U 4.z A z z z A q [ :.O.U z k.% ,.1.d 1.1.' i.i.i.$ i.$ i.( w.wX&X",
"l.{.rXsX8.C C R 5 @ . . . X.<XO.U +.A z A z e.@.e.3.A 4.U U D.d._ $ $ $ d X X X X X X ,._ X $ ( VX6.",
"8X$X2.C 5 R @ @ @ @ ; 9 9 X.9Xq U A K.@.A A e.@.3.3.3.q ) +.^.xX_ $ $ d d X X X # V _ # V i.( w.G.I.",
"uX@ 5 5 R @ @ . ; ; ; . . ; qXeXU z @.@.q q e.3.q q e.@.q ) '.0X_ d d d d X X # V + x _ ' / !.G.tX5.",
"8.C 5 @ R v.. . ; ; O     . N 6X[ [ 3.z 4.A e.3.4.+.z '.q ) [ <XV d ( d _ # # + + % + X ( VXc.~.&Xn.",
"8.5 R @ ; ; X.; ; O   % o.  ; %XD.) q ) 4.[ z A ) ) [ [ ) +.D.cX,.$ ( d # + + + % % V 1.!.tXI.>XUXUX",
"8.C @ @ . . @ @ .     o.+ { 9 X.vXK.A K.eXq +.+.[ '._.+XA _.cXV $ $ $ X # + + + % % K $ m.E.l.UXUXUX",
"z.5 R ; . . ; ; .   % + + % o.. v.qX4X%X%Xk.K._.k.d.#Xd.d.7X# ,.$ $ X X # # + % % + V ( !.c.I.UXUXUX",
"DX#.8.5 @ 9 ; O . 9 O { % o.. 9 9 . . O . 9 #Xo.xX#.X ,.1.,.' i.i.( i.X X _ + V x + X / w.G.~.>XUXUX",
"-XiX8.u.5 X.; ; ; ; .   O O 9 . 9 9 . 9 9 . o.z.{ x #.#.X X $ $ $ i.i.i.X _ + V V V 1./ w.m.E.>XUXUX",
"S 5X[.u.u.5 N @ R v.v.O     {   9 9 . 9 ; ; 9   O % z.K K x + # X 1.$ $ X V # + V V 1./ $Xm.E.s.UXUX",
"UX>X8X*XFXFX=X[.ZX}.NX*XA.A.A.=XA.=Xz.R f.; 9   z.O O     % o.x # 1.X ' V #.V K # 1.1./ $XG.~.s.UXUX",
"UXUXn.5.Y.Y.T.-Xl.UXn.5.T.Y.Y.Y.Y.6.}.*Xz.R ; . O O O       % #.% K K x x #.V x x X ( / m.c.6.S UXUX",
"UXUXUXUXUXUXUXUXUXUXUXUXUXUXUXUXUXUXn.-XrX. X.    {       { o.K x % x { { x % z.x $ / $XwX{.s.UXUXUX",
"UXUXUXUXUXUXUXUXUXUXUXUXUXUXUXUXUXUXUXn.6.pX#.@ . z.{ { . { % K #.V o.z.x % x x ' w.G.c.{.5.UXUXUXUX",
"UXUXUXUXUXUXUXUXUXUXUXUXUXUXUXUXUXUXUXUXS I.}.rXuXiXNXiX$XV X $ 1.X # x ( VXpXuXpXtX5XI.s.UXUXUXUXUX",
"UXUXUXUXUXUXUXUXUXUXUXUXUXUXUXUXUXUXUXUXUXUXUX-X6.l.UX5.{.A.U.U.U.U.CXCX[.8X6.6.6.5.S UXUXUXUXUXUXUX"
};
